feeds/modemdata/luci-app-modemdata/htdocs/luci-static/resources/icons/sim_new.svg

<?xml version="1.0" encoding="UTF-8" standalone="no"?>
<!-- Created with Inkscape (http://www.inkscape.org/) -->

<svg
   width="48"
   height="48"
   viewBox="0 0 12.7 12.7"
   version="1.1"
   id="svg1"
   xml:space="preserve"
   inkscape:version="1.4.2 (f4327f4, 2025-05-13)"
   sodipodi:docname="sim_new.svg"
   xmlns:inkscape="http://www.inkscape.org/namespaces/inkscape"
   xmlns:sodipodi="http://sodipodi.sourceforge.net/DTD/sodipodi-0.dtd"
   xmlns:xlink="http://www.w3.org/1999/xlink"
   xmlns="http://www.w3.org/2000/svg"
   xmlns:svg="http://www.w3.org/2000/svg"><sodipodi:namedview
     id="namedview1"
     pagecolor="#505050"
     bordercolor="#eeeeee"
     borderopacity="1"
     inkscape:showpageshadow="0"
     inkscape:pageopacity="0"
     inkscape:pagecheckerboard="0"
     inkscape:deskcolor="#505050"
     inkscape:document-units="mm"
     showguides="true"
     inkscape:zoom="16"
     inkscape:cx="17.75"
     inkscape:cy="25.46875"
     inkscape:window-width="2560"
     inkscape:window-height="1027"
     inkscape:window-x="-8"
     inkscape:window-y="-8"
     inkscape:window-maximized="1"
     inkscape:current-layer="layer3"
     showgrid="false" /><defs
     id="defs1"><inkscape:path-effect
       effect="fillet_chamfer"
       id="path-effect6"
       is_visible="true"
       lpeversion="1"
       nodesatellites_param="F,0,0,1,0,0.51263068,0,1 @ F,0,0,1,0,1.715658,0,1 @ F,0,0,1,0,0.43821662,0,1 @ F,0,0,1,0,0.45888719,0,1"
       radius="0.57812679"
       unit="px"
       method="auto"
       mode="F"
       chamfer_steps="1"
       flexible="false"
       use_knot_distance="true"
       apply_no_radius="true"
       apply_with_radius="true"
       only_selected="false"
       hide_knots="false" /><inkscape:path-effect
       effect="fillet_chamfer"
       id="path-effect4"
       is_visible="true"
       lpeversion="1"
       nodesatellites_param="F,0,0,1,0,0,0,1 @ F,0,0,1,0,0,0,1 @ F,0,0,1,0,0,0,1 @ F,0,0,1,0,0,0,1 @ F,0,0,1,0,0,0,1 @ F,0,0,1,0,0,0,1 @ F,0,0,1,0,0,0,1 @ F,0,0,1,0,0,0,1 @ F,0,0,1,0,0,0,1 @ F,0,0,1,0,0,0,1 @ F,0,0,1,0,0,0,1 @ F,0,0,1,0,0,0,1 @ F,0,0,1,0,0,0,1 @ F,0,0,1,0,0.74042303,0,1 @ F,0,0,1,0,1.083337,0,1 @ F,0,0,1,0,0,0,1 @ F,0,0,1,0,0,0,1 @ F,0,0,1,0,0,0,1 @ F,0,0,1,0,0,0,1 @ F,0,0,1,0,0,0,1"
       radius="0"
       unit="px"
       method="auto"
       mode="F"
       chamfer_steps="1"
       flexible="false"
       use_knot_distance="true"
       apply_no_radius="true"
       apply_with_radius="true"
       only_selected="false"
       hide_knots="false" /><inkscape:path-effect
       effect="fillet_chamfer"
       id="path-effect22"
       is_visible="true"
       lpeversion="1"
       nodesatellites_param="F,0,0,1,0,0,0,1 @ F,0,0,1,0,0,0,1 @ F,0,0,1,0,0,0,1 @ F,0,0,1,0,0,0,1 @ F,0,0,1,0,0,0,1 @ F,0,0,1,0,0,0,1 @ F,0,0,1,0,0,0,1 @ F,0,0,1,0,0,0,1 @ F,0,0,1,0,0,0,1 @ F,0,0,1,0,0,0,1 @ F,0,0,1,0,0,0,1 @ F,0,0,1,0,0,0,1 @ F,0,0,1,0,0,0,1 @ F,0,0,1,0,0.74042303,0,1 @ F,0,0,1,0,1.083337,0,1 @ F,0,0,1,0,0,0,1 @ F,0,0,1,0,0,0,1 @ F,0,0,1,0,0,0,1 @ F,0,0,1,0,0,0,1 @ F,0,0,1,0,0,0,1"
       radius="0"
       unit="px"
       method="auto"
       mode="F"
       chamfer_steps="1"
       flexible="false"
       use_knot_distance="true"
       apply_no_radius="true"
       apply_with_radius="true"
       only_selected="false"
       hide_knots="false" /><inkscape:path-effect
       effect="fillet_chamfer"
       id="path-effect7"
       is_visible="true"
       lpeversion="1"
       nodesatellites_param="F,0,0,1,0,0,0,1 @ F,0,0,1,0,0,0,1 @ F,0,0,1,0,0,0,1 @ F,0,0,1,0,0,0,1 @ F,0,0,1,0,0,0,1 @ F,0,0,1,0,0,0,1 @ F,0,0,1,0,0,0,1 @ F,0,0,1,0,0,0,1 @ F,0,0,1,0,0,0,1 @ F,0,0,1,0,0,0,1 @ F,0,0,1,0,0,0,1 @ F,0,0,1,0,0,0,1 @ F,0,0,1,0,0,0,1 @ F,0,0,1,0,0.74042303,0,1 @ F,0,0,1,0,1.083337,0,1 @ F,0,0,1,0,0,0,1 @ F,0,0,1,0,0,0,1 @ F,0,0,1,0,0,0,1 @ F,0,0,1,0,0,0,1 @ F,0,0,1,0,0,0,1"
       radius="0"
       unit="px"
       method="auto"
       mode="F"
       chamfer_steps="1"
       flexible="false"
       use_knot_distance="true"
       apply_no_radius="true"
       apply_with_radius="true"
       only_selected="false"
       hide_knots="false" /><inkscape:path-effect
       effect="fillet_chamfer"
       id="path-effect5"
       is_visible="true"
       lpeversion="1"
       nodesatellites_param="F,0,0,1,0,0,0,1 @ F,0,0,1,0,0,0,1 @ F,0,0,1,0,0,0,1 @ F,0,0,1,0,0,0,1 @ F,0,0,1,0,0,0,1 @ F,0,0,1,0,0,0,1 @ F,0,0,1,0,0,0,1 @ F,0,0,1,0,0,0,1 @ F,0,0,1,0,0,0,1 @ F,0,0,1,0,0,0,1 @ F,0,0,1,0,0,0,1 @ F,0,0,1,0,0,0,1 @ F,0,0,1,0,0,0,1 @ F,0,0,1,0,0.74042303,0,1 @ F,0,0,1,0,1.083337,0,1 @ F,0,0,1,0,0,0,1 @ F,0,0,1,0,0,0,1 @ F,0,0,1,0,0,0,1 @ F,0,0,1,0,0,0,1 @ F,0,0,1,0,0,0,1"
       radius="0"
       unit="px"
       method="auto"
       mode="F"
       chamfer_steps="1"
       flexible="false"
       use_knot_distance="true"
       apply_no_radius="true"
       apply_with_radius="true"
       only_selected="false"
       hide_knots="false" /><inkscape:path-effect
       effect="fillet_chamfer"
       id="path-effect3"
       is_visible="true"
       lpeversion="1"
       nodesatellites_param="F,0,0,1,0,0,0,1 @ F,0,0,1,0,0,0,1 @ F,0,0,1,0,0,0,1 @ F,0,0,1,0,0,0,1 @ F,0,0,1,0,0,0,1 @ F,0,0,1,0,0,0,1 @ F,0,0,1,0,0,0,1 @ F,0,0,1,0,0,0,1 @ F,0,0,1,0,0,0,1 @ F,0,0,1,0,0,0,1 @ F,0,0,1,0,0,0,1 @ F,0,0,1,0,0,0,1 @ F,0,0,1,0,0,0,1 @ F,0,0,1,0,0.74042303,0,1 @ F,0,0,1,0,1.083337,0,1 @ F,0,0,1,0,0,0,1 @ F,0,0,1,0,0,0,1 @ F,0,0,1,0,0,0,1 @ F,0,0,1,0,0,0,1 @ F,0,0,1,0,0,0,1"
       radius="0"
       unit="px"
       method="auto"
       mode="F"
       chamfer_steps="1"
       flexible="false"
       use_knot_distance="true"
       apply_no_radius="true"
       apply_with_radius="true"
       only_selected="false"
       hide_knots="false" /><inkscape:path-effect
       effect="fillet_chamfer"
       id="path-effect102"
       is_visible="true"
       lpeversion="1"
       nodesatellites_param="F,0,0,1,0,0,0,1 @ F,0,0,1,0,0,0,1 @ F,0,0,1,0,0,0,1 @ F,0,0,1,0,0,0,1 @ F,0,0,1,0,0,0,1 @ F,0,0,1,0,0,0,1 @ F,0,0,1,0,0,0,1 @ F,0,0,1,0,0,0,1 @ F,0,0,1,0,0,0,1 @ F,0,0,1,0,0,0,1 @ F,0,0,1,0,0,0,1 @ F,0,0,1,0,0,0,1 @ F,0,0,1,0,0,0,1 @ F,0,0,1,0,0.74042303,0,1 @ F,0,0,1,0,1.083337,0,1 @ F,0,0,1,0,0,0,1 @ F,0,0,1,0,0,0,1 @ F,0,0,1,0,0,0,1 @ F,0,0,1,0,0,0,1 @ F,0,0,1,0,0,0,1"
       radius="0"
       unit="px"
       method="auto"
       mode="F"
       chamfer_steps="1"
       flexible="false"
       use_knot_distance="true"
       apply_no_radius="true"
       apply_with_radius="true"
       only_selected="false"
       hide_knots="false" /><inkscape:path-effect
       effect="fillet_chamfer"
       id="path-effect91"
       is_visible="true"
       lpeversion="1"
       nodesatellites_param="F,0,0,1,0,0,0,1 @ F,0,0,1,0,0,0,1 @ F,0,0,1,0,0,0,1 @ F,0,0,1,0,0,0,1 @ F,0,0,1,0,0,0,1 @ F,0,0,1,0,0,0,1 @ F,0,0,1,0,0,0,1 @ F,0,0,1,0,0,0,1 @ F,0,0,1,0,0,0,1 @ F,0,0,1,0,0,0,1 @ F,0,0,1,0,0,0,1 @ F,0,0,1,0,0,0,1 @ F,0,0,1,0,0,0,1 @ F,0,0,1,0,0.74042303,0,1 @ F,0,0,1,0,1.083337,0,1 @ F,0,0,1,0,0,0,1 @ F,0,0,1,0,0,0,1 @ F,0,0,1,0,0,0,1 @ F,0,0,1,0,0,0,1 @ F,0,0,1,0,0,0,1"
       radius="0"
       unit="px"
       method="auto"
       mode="F"
       chamfer_steps="1"
       flexible="false"
       use_knot_distance="true"
       apply_no_radius="true"
       apply_with_radius="true"
       only_selected="false"
       hide_knots="false" /><inkscape:path-effect
       effect="fillet_chamfer"
       id="path-effect90"
       is_visible="true"
       lpeversion="1"
       nodesatellites_param="F,0,0,1,0,0,0,1 @ F,0,0,1,0,0,0,1 @ F,0,0,1,0,0,0,1 @ F,0,0,1,0,0,0,1 @ F,0,0,1,0,0,0,1 @ F,0,0,1,0,0,0,1 @ F,0,0,1,0,0,0,1 @ F,0,0,1,0,0,0,1 @ F,0,0,1,0,0,0,1 @ F,0,0,1,0,0,0,1 @ F,0,0,1,0,0,0,1 @ F,0,0,1,0,0,0,1 @ F,0,0,1,0,0,0,1 @ F,0,0,1,0,0,0,1 @ F,0,0,1,0,0,0,1 @ F,0,0,1,0,0,0,1 @ F,0,1,1,0,1.718711,0,1 @ F,0,0,1,0,1.718711,0,1 @ F,0,0,1,0,0,0,1"
       radius="0"
       unit="px"
       method="auto"
       mode="F"
       chamfer_steps="1"
       flexible="false"
       use_knot_distance="true"
       apply_no_radius="true"
       apply_with_radius="true"
       only_selected="false"
       hide_knots="false" /><linearGradient
       id="linearGradient6"
       inkscape:collect="always"><stop
         style="stop-color:#fddb6f;stop-opacity:1;"
         offset="0"
         id="stop7" /><stop
         style="stop-color:#f99b02;stop-opacity:1;"
         offset="1"
         id="stop6" /></linearGradient><linearGradient
       inkscape:collect="always"
       xlink:href="#linearGradient6"
       id="linearGradient7"
       x1="3.3674242"
       y1="5.8936892"
       x2="9.4284391"
       y2="10.744384"
       gradientUnits="userSpaceOnUse"
       gradientTransform="translate(-0.0920289,-0.2079015)" /><filter
       style="color-interpolation-filters:sRGB;"
       inkscape:label="Drop Shadow"
       id="filter255"
       x="-0.073932403"
       y="-0.040378909"
       width="1.154327"
       height="1.0935894"><feFlood
         result="flood"
         in="SourceGraphic"
         flood-opacity="0.498039"
         flood-color="rgb(0,0,0)"
         id="feFlood254" /><feGaussianBlur
         result="blur"
         in="SourceGraphic"
         stdDeviation="0.25971326"
         id="feGaussianBlur254" /><feOffset
         result="offset"
         in="blur"
         dx="0.300000"
         dy="0.300000"
         id="feOffset254" /><feComposite
         result="comp1"
         operator="in"
         in="flood"
         in2="offset"
         id="feComposite254" /><feComposite
         result="fbSourceGraphic"
         operator="over"
         in="SourceGraphic"
         in2="comp1"
         id="feComposite255" /><feColorMatrix
         result="fbSourceGraphicAlpha"
         in="fbSourceGraphic"
         values="0 0 0 -1 0 0 0 0 -1 0 0 0 0 -1 0 0 0 0 1 0"
         id="feColorMatrix255" /><feFlood
         id="feFlood255"
         result="flood"
         in="fbSourceGraphic"
         flood-opacity="0.498039"
         flood-color="rgb(0,0,0)" /><feGaussianBlur
         id="feGaussianBlur255"
         result="blur"
         in="fbSourceGraphic"
         stdDeviation="0.300000" /><feOffset
         id="feOffset255"
         result="offset"
         in="blur"
         dx="0.300000"
         dy="0.300000" /><feComposite
         id="feComposite256"
         result="comp1"
         operator="in"
         in="flood"
         in2="offset" /><feComposite
         id="feComposite257"
         result="fbSourceGraphic"
         operator="over"
         in="fbSourceGraphic"
         in2="comp1" /><feColorMatrix
         result="fbSourceGraphicAlpha"
         in="fbSourceGraphic"
         values="0 0 0 -1 0 0 0 0 -1 0 0 0 0 -1 0 0 0 0 1 0"
         id="feColorMatrix40" /><feFlood
         id="feFlood40"
         result="flood"
         in="fbSourceGraphic"
         flood-opacity="0.498039"
         flood-color="rgb(0,0,0)" /><feGaussianBlur
         id="feGaussianBlur40"
         result="blur"
         in="fbSourceGraphic"
         stdDeviation="0.200000" /><feOffset
         id="feOffset40"
         result="offset"
         in="blur"
         dx="-0.400000"
         dy="0.000000" /><feComposite
         id="feComposite40"
         result="comp1"
         operator="in"
         in="flood"
         in2="offset" /><feComposite
         id="feComposite41"
         result="comp2"
         operator="over"
         in="fbSourceGraphic"
         in2="comp1" /></filter></defs><g
     inkscape:groupmode="layer"
     id="layer2"
     inkscape:label="Layer 1"
     style="display:none"><path
       id="path1"
       style="display:inline;opacity:1;mix-blend-mode:hard-light;fill:#dae2e1;fill-opacity:0.03;stroke:#000000;stroke-width:0.129593;stroke-linecap:round;stroke-linejoin:round;stroke-dasharray:none;stroke-dashoffset:0;stroke-opacity:1;paint-order:markers stroke fill;filter:url(#filter255)"
       d="M 10.632813,0.63281251 10.273438,0.79882814 C 9.7552146,1.0386096 9.3308335,1.4418925 9.1191407,1.8964844 L 8.9335939,2.2929688 V 23.962891 c -8.488e-4,23.815884 -0.040015,21.990859 0.4746093,22.640625 0.1401686,0.176978 0.4443417,0.405848 0.7265628,0.546875 l 0.486328,0.242188 13.839844,-0.01953 13.839844,-0.02148 0.382812,-0.195312 c 0.450227,-0.229967 0.800027,-0.605742 1.03125,-1.105469 l 0.166016,-0.359381 c 0,0 0.0027,-13.848765 -0.0049,-26.098051 -2.54e-4,-0.408925 -0.0014,-1.071921 -0.0026,-1.480844 -0.01769,-6.361443 -0.01672,-9.287438 -0.01291,-10.6188027 0.0017,-0.5982231 -0.351906,-1.4096988 -0.794314,-1.8125022 L 37.978875,4.6912755 C 37.131633,3.9198793 36.286054,3.1466583 35.442144,2.371618 L 34.814695,1.7953743 C 34.000575,1.0476931 32.935477,0.63281259 31.830118,0.63281251 h -7.443399 z"
       transform="matrix(0.26458333,0,0,0.24616032,0,0.36538222)"
       sodipodi:nodetypes="cccccsccccccccccccccc"
       inkscape:path-effect="#path-effect91"
       inkscape:original-d="M 10.632813,0.63281251 10.273438,0.79882814 C 9.7552146,1.0386096 9.3308335,1.4418925 9.1191407,1.8964844 L 8.9335939,2.2929688 V 23.962891 c -8.488e-4,23.815884 -0.040015,21.990859 0.4746093,22.640625 0.1401686,0.176978 0.4443417,0.405848 0.7265628,0.546875 l 0.486328,0.242188 13.839844,-0.01953 13.839844,-0.02148 0.382812,-0.195312 c 0.450227,-0.229967 0.800027,-0.605742 1.03125,-1.105469 l 0.166016,-0.359381 c 0,0 0.0028,-14.414063 -0.0054,-26.838475 C 39.842187,7.3285201 39.86719,6.4105471 39.86719,6.4105471 L 37.978875,4.6912755 C 37.131633,3.9198793 36.286054,3.1466583 35.442144,2.371618 L 34.814695,1.7953743 C 34.000575,1.0476931 32.935477,0.63281259 31.830118,0.63281251 h -7.443399 z"
       inkscape:label="path1" /></g><g
     inkscape:label="Warstwa 1"
     inkscape:groupmode="layer"
     id="layer1"
     style="display:inline"><g
       inkscape:groupmode="layer"
       id="layer4"
       inkscape:label="Warstwa 2"><rect
         style="display:inline;opacity:1;fill:url(#linearGradient7);fill-opacity:1;stroke:#000000;stroke-width:0.1;stroke-dasharray:none;stroke-opacity:1"
         id="rect2"
         width="6.1492095"
         height="6.0446315"
         x="3.2753952"
         y="5.3975"
         rx="0.71362585"
         ry="0.71362585" /></g><g
       inkscape:groupmode="layer"
       id="layer5"
       inkscape:label="Layer 2"><g
         id="g99"
         style="display:inline;stroke:#000000;stroke-opacity:0.497481"
         transform="translate(-0.0920289,-0.2079015)"><path
           style="opacity:1;fill:#000000;fill-opacity:1;stroke:#000000;stroke-width:0.0986158;stroke-dasharray:none;stroke-opacity:0.497481"
           d="M 9.4721828,7.5406144 4.8154166,7.5141771"
           id="path92" /><path
           style="opacity:1;fill:#000000;fill-opacity:1;stroke:#000000;stroke-width:0.1;stroke-dasharray:none;stroke-opacity:0.497481"
           d="m 4.8579314,5.6356249 v 1.905"
           id="path93" /><path
           style="opacity:1;fill:#000000;fill-opacity:1;stroke:#000000;stroke-width:0.1;stroke-dasharray:none;stroke-opacity:0.497481"
           d="m 6.4420291,5.6054015 v 1.905"
           id="path94" /><path
           style="opacity:1;fill:#000000;fill-opacity:1;stroke:#000000;stroke-width:0.1;stroke-dasharray:none;stroke-opacity:0.497481"
           d="m 8.0434173,5.6054015 v 1.905"
           id="path95" /><path
           style="opacity:1;fill:#000000;fill-opacity:1;stroke:#000000;stroke-width:0.113322;stroke-dasharray:none;stroke-opacity:0.497481"
           d="M 9.5166337,9.496292 3.3674242,9.4698547"
           id="path96" /><path
           style="opacity:1;fill:#000000;fill-opacity:1;stroke:#000000;stroke-width:0.106823;stroke-dasharray:none;stroke-opacity:0.497481"
           d="M 4.840641,9.4761885 V 11.650033"
           id="path97" /><path
           style="opacity:1;fill:#000000;fill-opacity:1;stroke:#000000;stroke-width:0.106823;stroke-dasharray:none;stroke-opacity:0.497481"
           d="M 6.442029,9.4830734 V 11.656918"
           id="path98" /><path
           style="opacity:1;fill:#000000;fill-opacity:1;stroke:#000000;stroke-width:0.106823;stroke-dasharray:none;stroke-opacity:0.497481"
           d="M 8.0858406,9.4901406 V 11.663985"
           id="path99" /></g></g></g><g
     inkscape:groupmode="layer"
     id="layer6"
     inkscape:label="Warstwa 3"
     style="display:inline"><text
       xml:space="preserve"
       style="font-style:normal;font-variant:normal;font-weight:normal;font-stretch:normal;font-size:3.175px;font-family:Calibri;-inkscape-font-specification:Calibri;text-align:start;writing-mode:lr-tb;direction:ltr;text-anchor:start;opacity:1;fill:#a5a5a5;fill-opacity:1;stroke:#000000;stroke-width:0.007;stroke-dasharray:none;stroke-opacity:1"
       x="3.582727"
       y="4.3639469"
       id="text259"><tspan
         sodipodi:role="line"
         id="tspan259"
         style="font-style:normal;font-variant:normal;font-weight:bold;font-stretch:normal;font-family:Arial;-inkscape-font-specification:'Arial Bold';fill:#a5a5a5;fill-opacity:1;stroke-width:0.007"
         x="3.582727"
         y="4.3639469">SIM</tspan></text></g><g
     inkscape:groupmode="layer"
     id="layer3"
     inkscape:label="Warstwa 4"><path
       id="rect1"
       transform="matrix(1.0020284,0,0,1,-0.00483012,0)"
       d="m 2.8938806,0.51263022 h 5.7550292 c 0.3592961,0 1.8848132,1.27344438 1.8848132,1.59990278 v 9.471254 c 0,0.24202 -0.196196,0.438217 -0.438216,0.438217 H 2.8401371 c -0.2534363,0 -0.4588871,-0.205451 -0.4588872,-0.458887 V 1.0252609 c 0,-0.28311811 0.2295126,-0.51263068 0.5126307,-0.51263068 z"
       style="display:inline;fill:#d8d8d8;fill-opacity:0.24851485;stroke:#262626;stroke-width:0.13876559;stroke-linecap:round;stroke-linejoin:round;stroke-dasharray:none;stroke-opacity:1;paint-order:fill markers stroke"
       sodipodi:nodetypes="sssccscss" /></g></svg>

<!--
  Copyright 2025-2026 Rafał Wabik - IceG - From eko.one.pl forum
  https://github.com/4IceG
  MIT License
-->
<svg width="48" height="48" version="1.1" viewBox="0 0 12.7 12.7" xml:space="preserve" xmlns="http://www.w3.org/2000/svg" xmlns:xlink="http://www.w3.org/1999/xlink"><defs><linearGradient id="a" x1="3.367" x2="9.428" y1="5.894" y2="10.74" gradientTransform="translate(-.09203 -.2079)" gradientUnits="userSpaceOnUse"><stop stop-color="#fddb6f" offset="0"/><stop stop-color="#f99b02" offset="1"/></linearGradient><filter id="b" x="-.07393" y="-.04038" width="1.154" height="1.094" color-interpolation-filters="sRGB"><feFlood flood-color="rgb(0,0,0)" flood-opacity=".498" in="SourceGraphic" result="flood"/><feGaussianBlur in="SourceGraphic" result="blur" stdDeviation="0.25971326"/><feOffset dx="0.300000" dy="0.300000" in="blur" result="offset"/><feComposite in="flood" in2="offset" operator="in" result="comp1"/><feComposite in="SourceGraphic" in2="comp1" result="fbSourceGraphic"/><feColorMatrix in="fbSourceGraphic" result="fbSourceGraphicAlpha" values="0 0 0 -1 0 0 0 0 -1 0 0 0 0 -1 0 0 0 0 1 0"/><feFlood flood-color="rgb(0,0,0)" flood-opacity=".498" in="fbSourceGraphic" result="flood"/><feGaussianBlur in="fbSourceGraphic" result="blur" stdDeviation="0.300000"/><feOffset dx="0.300000" dy="0.300000" in="blur" result="offset"/><feComposite in="flood" in2="offset" operator="in" result="comp1"/><feComposite in="fbSourceGraphic" in2="comp1" result="fbSourceGraphic"/><feColorMatrix in="fbSourceGraphic" result="fbSourceGraphicAlpha" values="0 0 0 -1 0 0 0 0 -1 0 0 0 0 -1 0 0 0 0 1 0"/><feFlood flood-color="rgb(0,0,0)" flood-opacity=".498" in="fbSourceGraphic" result="flood"/><feGaussianBlur in="fbSourceGraphic" result="blur" stdDeviation="0.200000"/><feOffset dx="-0.400000" dy="0.000000" in="blur" result="offset"/><feComposite in="flood" in2="offset" operator="in" result="comp1"/><feComposite in="fbSourceGraphic" in2="comp1" result="comp2"/></filter></defs><g display="none"><path transform="matrix(.2646 0 0 .2462 0 .3654)" d="m10.63 0.6328-0.3594 0.166c-0.5182 0.2398-0.9426 0.6431-1.154 1.098l-0.1855 0.3965v21.67c-8.488e-4 23.82-0.04002 21.99 0.4746 22.64 0.1402 0.177 0.4443 0.4058 0.7266 0.5469l0.4863 0.2422 27.68-0.04101 0.3828-0.1953c0.4502-0.23 0.8-0.6057 1.031-1.105l0.166-0.3594s0.0027-13.85-0.0049-26.1c-2.54e-4 -0.4089-0.0014-1.072-0.0026-1.481-0.01769-6.361-0.01672-9.287-0.01291-10.62 0.0017-0.5982-0.3519-1.41-0.7943-1.813l-1.087-0.9899c-0.8472-0.7714-1.693-1.545-2.537-2.32l-0.6274-0.5762c-0.8141-0.7477-1.879-1.163-2.985-1.163h-7.443z" display="inline" fill="#dae2e1" fill-opacity=".03" filter="url(#b)" stroke="#000" stroke-linecap="round" stroke-linejoin="round" stroke-width=".1296" style="mix-blend-mode:hard-light;paint-order:markers stroke fill"/></g><g><rect x="3.275" y="5.398" width="6.149" height="6.045" rx=".7136" ry=".7136" fill="url(#a)" stroke="#000" stroke-width=".1"/><g transform="translate(-.09203 -.2079)" stroke="#000" stroke-opacity=".4975"><path d="m9.472 7.541-4.657-0.02644" stroke-width=".09862"/><path d="m4.858 5.636v1.905" stroke-width=".1"/><path d="m6.442 5.605v1.905" stroke-width=".1"/><path d="m8.043 5.605v1.905" stroke-width=".1"/><path d="m9.517 9.496-6.149-0.02644" stroke-width=".1133"/><path d="m4.841 9.476v2.174" stroke-width=".1068"/><path d="m6.442 9.483v2.174" stroke-width=".1068"/><path d="m8.086 9.49v2.174" stroke-width=".1068"/></g><text x="3.582727" y="4.3639469" fill="#a5a5a5" font-family="Calibri" font-size="3.175px" stroke="#000000" stroke-width=".007" xml:space="preserve"><tspan x="3.582727" y="4.3639469" fill="#a5a5a5" font-family="Arial" font-weight="bold" stroke-width=".007">SIM</tspan></text></g><path transform="matrix(1.002 0 0 1 -.00483 0)" d="m2.894 0.5126h5.755c0.3593 0 1.885 1.273 1.885 1.6v9.471c0 0.242-0.1962 0.4382-0.4382 0.4382h-7.255c-0.2534 0-0.4589-0.2055-0.4589-0.4589v-10.54c0-0.2831 0.2295-0.5126 0.5126-0.5126z" fill="#d8d8d8" fill-opacity=".2485" stroke="#262626" stroke-linecap="round" stroke-linejoin="round" stroke-width=".1388" style="paint-order:fill markers stroke"/></svg>
